X:1
T:Old Towler TS.177
T:Old Towler TS.177
T:William Shield
C:William Shield
L:1/8
Q:3/8=100
M:6/8
K:D
V:1 treble 
V:1
 A | d2 d B2 G | F2 G A2 c | B2 d ceg | f3 e2 A | d2 d f2 d | Bcd e2{d} F | E2 F G2 F | %8
 EA,A, A,2 A, | A,DD DFF | FDD D2 D | DFF FAA | AFF F2 A, | A,DD DFF | FAA FAd | dff faa | %16
 ^g3 z g2 | aeg fed | Bgf edc | d3 c3 | d'af dfa | d'/a/f/ d/f/a/ d'/a/f/ d/f/a/ | %22
 d'/a/f/ d/f/a/ d'/f/a/d/f/a/ | d'd'd' d'd'd' | d'6 |:"^Song" A | d2 d B2 G | F2 G A2 c | %28
 B2 d ceg | f3 e2 A | d2 d f2 d | Bcd e2 d | cdc BAB | A3 z2 z :| A | e2 c A2 A | f2 d A2 d | %37
 c2 e g2 f | f3 e2 A | A^GA Bcd | efg afd | B2 e cAc | d3 z DF | A3 A3 | ABc dcB | AFA AFA | %46
 Add dAc | e3 e3 | efg agf | ece ece | e2 g z a | fdd dcd | ecA A2 a | fdd dcd | ecA ABc | %55
 dff dfd | d3 d3 | dff dff | f2 !fermata!a3 F | D2 G F2 B | A2 g f2 d | B2 e cBc | d3 g3 | %63
 fgf edc | a3 g3 | f>gf edc | dAF D2 :| %67

